X:258
T:Sliabh Bloom
Z:Phantom Button
S:https://thesession.org/tunes/4245#setting4245
R:reel
M:4/4
L:1/8
K:Dmaj
d3B AF~F2|GEFD EDB,D|~A,3B, DEFD|GEFD EDB,D|
d3B AF~F2|GEFD EDB,D|~A,3B, DEFD|EDEF D3z:|
d3f afdf|g2fg efdB|AF~F2DFAF|GEFD EDB,D|
[1 d3f afdf|g2fg efdB|AF~F2DF~F2|EDEF D3z:|
[2 A,DFA dfaf|bgaf gfef|d3B AFdB|AFGE D3z||

